build/images/last-section/Vectorls-icon-5.svg

<svg width="50" height="80" viewBox="0 0 50 80" fill="none" xmlns="http://www.w3.org/2000/svg">
<path d="M37.902 60.3417C37.902 61.1701 38.5736 61.8417 39.402 61.8417C40.2304 61.8417 40.902 61.1701 40.902 60.3417H37.902ZM40.902 36.1037C40.902 35.2753 40.2304 34.6037 39.402 34.6037C38.5736 34.6037 37.902 35.2753 37.902 36.1037H40.902ZM30.7534 60.3417C30.7534 61.1701 31.4249 61.8417 32.2534 61.8417C33.0818 61.8417 33.7534 61.1701 33.7534 60.3417H30.7534ZM33.7534 46.7376C33.7534 45.9092 33.0818 45.2376 32.2534 45.2376C31.4249 45.2376 30.7534 45.9092 30.7534 46.7376H33.7534ZM13.8838 14.2526C13.8838 15.081 14.5554 15.7526 15.3838 15.7526C16.2123 15.7526 16.8838 15.081 16.8838 14.2526H13.8838ZM15.3838 2.47339V0.973389C14.5554 0.973389 13.8838 1.64496 13.8838 2.47339L15.3838 2.47339ZM34.4505 2.47339H35.9505C35.9505 1.64496 35.2789 0.973389 34.4505 0.973389V2.47339ZM32.9505 14.2526C32.9505 15.081 33.622 15.7526 34.4505 15.7526C35.2789 15.7526 35.9505 15.081 35.9505 14.2526H32.9505ZM8.87288 16.9674H41.1115V13.9674H8.87288V16.9674ZM41.1115 16.9674C44.085 16.9674 46.4922 19.3742 46.4922 22.339H49.4922C49.4922 17.7136 45.7382 13.9674 41.1115 13.9674V16.9674ZM46.4922 22.339V60.1169H49.4922V22.339H46.4922ZM46.4922 60.1169C46.4922 63.0817 44.085 65.4886 41.1115 65.4886V68.4886C45.7382 68.4886 49.4922 64.7423 49.4922 60.1169H46.4922ZM41.1115 65.4886H8.87288V68.4886H41.1115V65.4886ZM8.87288 65.4886C5.89933 65.4886 3.49219 63.0817 3.49219 60.1169H0.492188C0.492188 64.7423 4.24621 68.4886 8.87288 68.4886V65.4886ZM3.49219 60.1169V22.339H0.492188V60.1169H3.49219ZM3.49219 22.339C3.49219 19.3742 5.89933 16.9674 8.87288 16.9674V13.9674C4.24621 13.9674 0.492188 17.7136 0.492188 22.339H3.49219ZM12.5977 74.8449C12.5977 76.0186 11.6445 76.9734 10.4644 76.9734V79.9734C13.2976 79.9734 15.5977 77.6792 15.5977 74.8449H12.5977ZM10.4644 76.9734C9.28441 76.9734 8.33121 76.0186 8.33121 74.8449H5.33121C5.33121 77.6791 7.63125 79.9734 10.4644 79.9734V76.9734ZM8.33121 74.8449C8.33121 73.6712 9.28441 72.7164 10.4644 72.7164V69.7164C7.63125 69.7164 5.33121 72.0107 5.33121 74.8449H8.33121ZM10.4644 72.7164C11.6445 72.7164 12.5977 73.6713 12.5977 74.8449H15.5977C15.5977 72.0107 13.2976 69.7164 10.4644 69.7164V72.7164ZM41.5353 74.8449C41.5353 76.0186 40.5821 76.9734 39.402 76.9734V79.9734C42.2352 79.9734 44.5353 77.6792 44.5353 74.8449H41.5353ZM39.402 76.9734C38.222 76.9734 37.2688 76.0186 37.2688 74.8449H34.2688C34.2688 77.6791 36.5688 79.9734 39.402 79.9734V76.9734ZM37.2688 74.8449C37.2688 73.6712 38.222 72.7164 39.402 72.7164V69.7164C36.5688 69.7164 34.2688 72.0107 34.2688 74.8449H37.2688ZM39.402 72.7164C40.5821 72.7164 41.5353 73.6713 41.5353 74.8449H44.5353C44.5353 72.0107 42.2352 69.7164 39.402 69.7164V72.7164ZM40.902 60.3417V36.1037H37.902V60.3417H40.902ZM33.7534 60.3417V46.7376H30.7534V60.3417H33.7534ZM16.8838 14.2526V2.47339H13.8838V14.2526H16.8838ZM15.3838 3.97339H34.4505V0.973389H15.3838V3.97339ZM32.9505 2.47339V14.2526H35.9505V2.47339H32.9505Z" fill="#62DB46"/>
</svg>

<svg width="50" height="80" fill="none" xmlns="http://www.w3.org/2000/svg"><path d="M37.902 60.342a1.5 1.5 0 0 0 3 0h-3zm3-24.238a1.5 1.5 0 0 0-3 0h3zM30.753 60.342a1.5 1.5 0 1 0 3 0h-3zm3-13.604a1.5 1.5 0 0 0-3 0h3zm-19.87-32.485a1.5 1.5 0 0 0 3 0h-3zm1.5-11.78v-1.5a1.5 1.5 0 0 0-1.5 1.5h1.5zm19.067 0h1.5a1.5 1.5 0 0 0-1.5-1.5v1.5zm-1.5 11.78a1.5 1.5 0 1 0 3 0h-3zM8.873 16.967h32.239v-3H8.871v3zm32.239 0a5.376 5.376 0 0 1 5.38 5.372h3c0-4.625-3.754-8.372-8.38-8.372v3zm5.38 5.372v37.778h3V22.339h-3zm0 37.778a5.376 5.376 0 0 1-5.38 5.372v3c4.626 0 8.38-3.747 8.38-8.372h-3zm-5.38 5.372H8.871v3h32.24v-3zm-32.24 0a5.376 5.376 0 0 1-5.38-5.372h-3c0 4.625 3.754 8.372 8.38 8.372v-3zm-5.38-5.372V22.339h-3v37.778h3zm0-37.778a5.376 5.376 0 0 1 5.38-5.372v-3c-4.626 0-8.38 3.747-8.38 8.372h3zm9.106 52.506a2.13 2.13 0 0 1-2.134 2.128v3a5.13 5.13 0 0 0 5.134-5.128h-3zm-2.134 2.128a2.13 2.13 0 0 1-2.133-2.128h-3a5.13 5.13 0 0 0 5.133 5.128v-3zm-2.133-2.128a2.13 2.13 0 0 1 2.133-2.129v-3a5.13 5.13 0 0 0-5.133 5.129h3zm2.133-2.129a2.13 2.13 0 0 1 2.134 2.129h3a5.13 5.13 0 0 0-5.134-5.129v3zm31.071 2.129a2.13 2.13 0 0 1-2.133 2.128v3a5.13 5.13 0 0 0 5.133-5.128h-3zm-2.133 2.128a2.13 2.13 0 0 1-2.133-2.128h-3a5.13 5.13 0 0 0 5.133 5.128v-3zm-2.133-2.128a2.13 2.13 0 0 1 2.133-2.129v-3a5.13 5.13 0 0 0-5.133 5.129h3zm2.133-2.129a2.13 2.13 0 0 1 2.133 2.129h3a5.13 5.13 0 0 0-5.133-5.129v3zm1.5-12.374V36.104h-3v24.238h3zm-7.149 0V46.738h-3v13.604h3zm-16.87-46.09V2.474h-3v11.78h3zm-1.5-10.279H34.45v-3H15.384v3zm17.567-1.5v11.78h3V2.473h-3z" fill="#62DB46"/></svg>
